material/.icons/material/looks.svg

<svg xmlns="http://www.w3.org/2000/svg" viewBox="0 0 24 24"><path d="M12 6A11 11 0 001 17h2c0-4.96 4.04-9 9-9s9 4.04 9 9h2A11 11 0 0012 6m0 4c-3.86 0-7 3.14-7 7h2a5 5 0 015-5 5 5 0 015 5h2c0-3.86-3.14-7-7-7z"/></svg>

<?xml version="1.0" encoding="UTF-8"?><!DOCTYPE svg PUBLIC "-//W3C//DTD SVG 1.1//EN" "http://www.w3.org/Graphics/SVG/1.1/DTD/svg11.dtd"><svg xmlns="http://www.w3.org/2000/svg" xmlns:xlink="http://www.w3.org/1999/xlink" version="1.1" id="mdi-looks" width="24" height="24" viewBox="0 0 24 24"><path d="M12,6A11,11 0 0,0 1,17H3C3,12.04 7.04,8 12,8C16.96,8 21,12.04 21,17H23A11,11 0 0,0 12,6M12,10C8.14,10 5,13.14 5,17H7A5,5 0 0,1 12,12A5,5 0 0,1 17,17H19C19,13.14 15.86,10 12,10Z" /></svg>
